modules/framework7-icons/icons/sort_fill.svg

<?xml version="1.0" encoding="UTF-8"?>
<svg width="44px" height="44px" viewBox="0 0 44 44" version="1.1" xmlns="http://www.w3.org/2000/svg" xmlns:xlink="http://www.w3.org/1999/xlink">
    <!-- Generator: Sketch 40.1 (33804) - http://www.bohemiancoding.com/sketch -->
    <title>sort_fill</title>
    <desc>Created with Sketch.</desc>
    <defs></defs>
    <g id="Page-1" stroke="none" stroke-width="1" fill="none" fill-rule="evenodd">
        <g id="sort_fill" fill="#000000">
            <path d="M22,44 C34.1502645,44 44,34.1502645 44,22 C44,9.8497355 34.1502645,0 22,0 C9.8497355,0 0,9.8497355 0,22 C0,34.1502645 9.8497355,44 22,44 Z M8,14 L36,14 L36,16 L8,16 L8,14 Z M12,22 L32,22 L32,24 L12,24 L12,22 Z M16,30 L28,30 L28,32 L16,32 L16,30 Z" id="Combined-Shape"></path>
        </g>
    </g>
</svg>

<svg width="44" height="44" viewBox="0 0 44 44" xmlns="http://www.w3.org/2000/svg"><path d="M22 44c12.15 0 22-9.85 22-22S34.15 0 22 0 0 9.85 0 22s9.85 22 22 22zM8 14h28v2H8v-2zm4 8h20v2H12v-2zm4 8h12v2H16v-2z" fill="#000" fill-rule="evenodd"/></svg>
